X: 137
T: Shao shu
L: 1/8
M: 2/4
K: A
e2e2 [I:setbarnb 1]| 
e< ee2 | 
c2B c | 
B4 | 
B2B e | 
c B A F/ A/ | 
B4 | 
B/ e/ G e/ G3/ | 
E A A/ G/ F/ E/ | 
D E B, D | 
E A D C/ B,/ | 
A,> B,A,2 |]

@@@ Tune index: 9011
